X: 21
T:Mulvihill's reel
R:reel
Z:Added by Alf Warnock
M:4/4
L:1/8
K:G
|:BABd eBdB|edBG AGED|B,D~D2 EDB,D|~G2GA BAA2|
BABd eBdB|edBG AGED|B,D~D2 EDAB|cAFD G2A2:|
|:d2Bd gBdB|d2Bd gBdB|e2^ce a^ce^c|afge fde^c|
d2Bd gBdB|d2Bd gBdB|c2cB cBAB|cAFD G2z2:|
BAGE DB,DE|DB,DG B2AB|cBAG FEDE|DEFG A2GA|
BAGE DB,DE|DB,DG B2AB|c2cB cBAB|cAFD G2z2:|

